Numix-Light/scalable/actions/edit-find-replace-symbolic.svg

<?xml version="1.0" encoding="UTF-8" standalone="no"?>
<!-- Created with Inkscape (http://www.inkscape.org/) -->

<svg
   xmlns:dc="http://purl.org/dc/elements/1.1/"
   xmlns:cc="http://creativecommons.org/ns#"
   xmlns:rdf="http://www.w3.org/1999/02/22-rdf-syntax-ns#"
   xmlns:svg="http://www.w3.org/2000/svg"
   xmlns="http://www.w3.org/2000/svg"
   xmlns:sodipodi="http://sodipodi.sourceforge.net/DTD/sodipodi-0.dtd"
   xmlns:inkscape="http://www.inkscape.org/namespaces/inkscape"
   id="svg7384"
   style="enable-background:new"
   height="16"
   width="16"
   version="1.1"
   inkscape:version="0.91 r"
   sodipodi:docname="edit-find-replace-symbolic.svg">
  <sodipodi:namedview
     pagecolor="#ffffff"
     bordercolor="#666666"
     borderopacity="1"
     objecttolerance="10"
     gridtolerance="10"
     guidetolerance="10"
     inkscape:pageopacity="0"
     inkscape:pageshadow="2"
     inkscape:window-width="1920"
     inkscape:window-height="1056"
     id="namedview10"
     showgrid="true"
     inkscape:zoom="29.5"
     inkscape:cx="9.5914434"
     inkscape:cy="13.343223"
     inkscape:window-x="0"
     inkscape:window-y="24"
     inkscape:window-maximized="1"
     inkscape:current-layer="svg7384">
    <inkscape:grid
       type="xygrid"
       id="grid4161" />
  </sodipodi:namedview>
  <metadata
     id="metadata90">
    <rdf:RDF>
      <cc:Work
         rdf:about="">
        <dc:format>image/svg+xml</dc:format>
        <dc:type
           rdf:resource="http://purl.org/dc/dcmitype/StillImage" />
        <dc:title>Paper Symbolic Icon Theme</dc:title>
      </cc:Work>
    </rdf:RDF>
  </metadata>
  <title
     id="title8473">Paper Symbolic Icon Theme</title>
  <defs
     id="defs7386" />
  <path
     style="color:#000000;font-style:normal;font-variant:normal;font-weight:normal;font-stretch:normal;font-size:medium;line-height:normal;font-family:sans-serif;text-indent:0;text-align:start;text-decoration:none;text-decoration-line:none;text-decoration-style:solid;text-decoration-color:#000000;letter-spacing:normal;word-spacing:normal;text-transform:none;direction:ltr;block-progression:tb;writing-mode:lr-tb;baseline-shift:baseline;text-anchor:start;white-space:normal;clip-rule:nonzero;display:inline;overflow:visible;visibility:visible;opacity:1;isolation:auto;mix-blend-mode:normal;color-interpolation:sRGB;color-interpolation-filters:linearRGB;solid-color:#000000;solid-opacity:1;fill:#353535;fill-opacity:1;fill-rule:nonzero;stroke:none;stroke-width:2;stroke-linecap:square;stroke-linejoin:miter;stroke-miterlimit:4;stroke-dasharray:none;stroke-dashoffset:0;stroke-opacity:1;color-rendering:auto;image-rendering:auto;shape-rendering:auto;text-rendering:auto;enable-background:accumulate"
     d="M 6.4941406 1 C 5.084474 1 3.6752228 1.5357146 2.6054688 2.6054688 C 0.67548015 4.5354572 0.49098346 7.5681596 2.0429688 9.7148438 L 3.4882812 8.2675781 C 2.6893936 6.9236753 2.8587099 5.1803526 4.0195312 4.0195312 C 5.1803526 2.8587099 6.9236753 2.6893936 8.2675781 3.4882812 L 8.7773438 2.9785156 L 9.484375 2.2714844 L 9.7128906 2.0429688 C 8.7564442 1.3516193 7.6272101 1 6.4941406 1 z M 9.8183594 5.4355469 C 10.046099 6.1461012 10.041902 6.9060378 9.8007812 7.6132812 L 10.898438 6.515625 L 9.8183594 5.4355469 z M 11.507812 8.7363281 L 8.734375 11.507812 C 9.3326674 11.242361 9.8940247 10.871602 10.382812 10.382812 C 10.87116 9.8944662 11.242399 9.3340105 11.507812 8.7363281 z M 4.9589844 9.6269531 L 3.4882812 11.097656 C 4.1130989 11.504604 4.8040148 11.771331 5.515625 11.898438 L 7.6132812 9.8007812 C 6.7439932 10.097148 5.7931192 10.038912 4.9589844 9.6269531 z "
     id="path4163" />
  <path
     style="opacity:1;fill:#353535;fill-opacity:1;fill-rule:nonzero;stroke:none;stroke-width:2;stroke-linecap:square;stroke-linejoin:miter;stroke-miterlimit:4;stroke-dasharray:none;stroke-dashoffset:0;stroke-opacity:1"
     d="M 10.828125 9.4140625 L 9.4140625 10.828125 L 13.5625 14.976562 C 13.759152 15.173215 14.040587 15.211366 14.191406 15.060547 L 15.060547 14.191406 C 15.211366 14.040587 15.175168 13.759152 14.978516 13.5625 L 10.828125 9.4140625 z "
     id="rect4165" />
  <g
     style="enable-background:new"
     id="g4151">
    <g
       style="fill:#353535;fill-opacity:1"
       transform="matrix(0.70710678,0.70710678,-0.70710678,0.70710678,8.0710678,-3.3847763)"
       id="g4153">
      <path
         style="fill:#353535;fill-opacity:1;fill-rule:evenodd;stroke:none;stroke-width:1px;stroke-linecap:butt;stroke-linejoin:miter;stroke-opacity:1"
         d="M 8,18 6,16 6,4 l 4,0 0,12 z"
         id="path4140"
         inkscape:connector-curvature="0" />
      <path
         style="opacity:1;fill:#353535;fill-opacity:1;fill-rule:nonzero;stroke:none;stroke-width:2;stroke-linecap:square;stroke-linejoin:miter;stroke-miterlimit:4;stroke-dasharray:none;stroke-dashoffset:0;stroke-opacity:1"
         d="m 6.385,0 3.23,0 C 9.82829,0 10,0.22389199 10,0.50199997 L 10,3 6,3 6,0.50199997 C 6,0.22389199 6.17171,0 6.385,0 Z"
         id="rect4150"
         inkscape:connector-curvature="0"
         sodipodi:nodetypes="sssccss" />
    </g>
  </g>
</svg>

<!-- Created with Inkscape (http://www.inkscape.org/) -->
<svg xmlns="http://www.w3.org/2000/svg" viewBox="0 0 16 16" style="enable-background:new">
 <path d="m 6.494 1 c -1.41 0 -2.819 0.536 -3.889 1.605 c -1.93 1.93 -2.114 4.963 -0.563 7.109 l 1.445 -1.447 c -0.799 -1.344 -0.63 -3.087 0.531 -4.248 c 1.161 -1.161 2.904 -1.33 4.248 -0.531 l 0.51 -0.51 l 0.707 -0.707 l 0.229 -0.229 c -0.956 -0.691 -2.086 -1.043 -3.219 -1.043 z m 3.324 4.436 c 0.228 0.711 0.224 1.47 -0.018 2.178 l 1.098 -1.098 l -1.08 -1.08 z m 1.689 3.301 l -2.773 2.771 c 0.598 -0.265 1.16 -0.636 1.648 -1.125 c 0.488 -0.488 0.86 -1.049 1.125 -1.646 z m -6.549 0.891 l -1.471 1.471 c 0.625 0.407 1.316 0.674 2.027 0.801 l 2.098 -2.098 c -0.869 0.296 -1.82 0.238 -2.654 -0.174 z" mix-blend-mode="normal" isolation="auto" white-space="normal" solid-opacity="1" solid-color="#000000" style="visibility:visible;shape-rendering:auto;color-interpolation-filters:linearRGB;fill:#353535;opacity:1;image-rendering:auto;fill-opacity:1;stroke:none;display:inline;color:#000;fill-rule:nonzero;color-rendering:auto;color-interpolation:sRGB"/>
 <path d="m 10.828 9.414 l -1.414 1.414 l 4.148 4.148 c 0.197 0.197 0.478 0.235 0.629 0.084 l 0.869 -0.869 c 0.151 -0.151 0.115 -0.432 -0.082 -0.629 l -4.15 -4.148 z" style="fill:#353535;opacity:1;fill-opacity:1;stroke:none;fill-rule:nonzero"/>
 <g>
  <g transform="matrix(0.70710678,0.70710678,-0.70710678,0.70710678,8.0710678,-3.3847763)" style="fill:#353535;fill-opacity:1">
   <path d="M 8,18 6,16 6,4 l 4,0 0,12 z" style="stroke:none;fill-rule:evenodd"/>
   <path d="m 6.385 0 3.23 0 c 0.213 0 0.385 0.224 0.385 0.502 l 0 2.498 -4 0 0 -2.498 c 0 -0.278 0.172 -0.502 0.385 -0.502" style="opacity:1;stroke:none;fill-rule:nonzero"/>
  </g>
 </g>
</svg>
